X: 12041
T: Lady McDuff's Lament and Scoon House
C: James Oswald
%R: air
B: James Oswald "The Caledonian Pocket Companion" v.1 b.1 p.4 #1
Z: 2020 John Chambers <jc:trillian.mit.edu>
N: There are no initial-repeat signs to match the 1st/2nd endings.
N: The 2nd strain has just '||' between the endings, with no ':'.
M: 3/4
L: 1/8
K: D
|: "_Slow"\
A3 (G/F/) E>A | F2 D2 A2 | d3 c (B/c/)d | {d2}Tc4 A2 |\
d3 B (TA>F) | E3 F (G/A/)B | A3 (G/F/) (TE>D) |[1 D3 EFG :|[2 D3 DEF ||
G3 F G>A | B3 =c B2 | e3 f (e/d/c/d/) | {d}Tc3 B A2 |\
d3 c (d/e/)f | e3 a f>b | (^ga) Ta3 ^g | a3 f (ga) |
b3 a (b/c'/)d' | {d'}Tc'3 b a>g | "_Pia."(f>e)(d>c) B2 | (g>f)(e>d) (c/d/)e |\
"_For."d3 e (dA) | B3 e c2 | (d/e/)f Td3 c |[1 d3 DEF :|[2 d6 |]


